X: 154
T: The Coolin 
N: O'Farrell's Pocket Companion v.2 (Sky ed. p.73-4)
N: "Irish" % "Coolin" <- "Cuilfhionn" = fair-haired (boy)
N: page 50
N: heptatonic
M: 3/4
L: 1/8
R: slow air
K: G
de/f/|"G"g2g2 a>f|g>d B2 GB/d/|g>f ga/b/ a>g|\
ga/g/ f2 g>f|"C"e3 f/g/ a/g/f/e/|
"G"d2 Bd gd|"C"f/e/d/c/ "G"BG A>G|G4:: d>c|\
B>A G>A B>^c|"D"d d/^c/ defd|
"G"g>f ga/b/ a>g|ga/g/ f2 g>f|"C"e3 f/g/ a/g/f/e/|\
"G"d>c Bd gd|"C"f/e/f/g/ B>B A>G|"G"G4:|






